X: 4
T: The Sleeping Tune
R: reel
M: 4/4
L: 1/8
K: Bmin
B2 f4 fe | g2gf fecd | e2 e4 ed | e3d efdc |
d6 dc|d3c decB | c2 c4cB |1 c3d efdc :|2 c3d effe||
d2 a4 cd | acda cddB | c2 a4 cB | c3B cddc |
B2 a4 BA | B3A BcdB | c2cB cded |1 e4- effe :|2 e6dc ||


Tune 7425	Setting 28144

